icons/credit-card-outline.svg

<svg xmlns="http://www.w3.org/2000/svg" width="24" height="24" viewBox="0 0 24 24">
    <path fill="#3A3A47" fill-rule="evenodd" d="M20 4c1.333 0 2 .667 2 2v12c0 1.338-.667 2.005-2 2H4c-1.333.005-2-.662-2-2V6c0-1.333.667-2 2-2h16zm0 6.999H4V18h16v-7.001zM16 14c.667 0 1 .333 1 1 0 .665-.333.998-1 .998h-5c-.667 0-1-.333-1-.999 0-.666.333-.999 1-.999h5zm-8 0c.667 0 1 .333 1 1 0 .665-.333.998-1 .998H7c-.667 0-1-.333-1-.999 0-.666.333-.999 1-.999h1zm12-8H4v1.999h16V6z"/>
</svg>

<svg width="24" height="24" viewBox="0 0 24 24" fill="none" xmlns="http://www.w3.org/2000/svg">
<path fill-rule="evenodd" clip-rule="evenodd" d="M20 8V6H4V8H20ZM20 11H4V18H20V11ZM4 4H20C21.333 4 22 4.667 22 6V18C22 19.338 21.333 20.005 20 20H4C2.667 20.005 2 19.338 2 18V6C2 4.667 2.667 4 4 4ZM11 14H16C16.667 14 17 14.333 17 15C17 15.665 16.667 15.998 16 15.998H11C10.333 15.998 10 15.665 10 14.999C10 14.333 10.333 14 11 14ZM7 14H8C8.667 14 9 14.333 9 15C9 15.665 8.667 15.998 8 15.998H7C6.333 15.998 6 15.665 6 14.999C6 14.333 6.333 14 7 14Z" fill="#3A3A47"/>
</svg>
